!!!COM: Scriabin, Alexander
!!!OTL@@FR: Étude en ré dièse mineur
!!!OTL@@EN: Etude in D# Minor
!!!OPR@@FR: 12 Études
!!!OPR@@EN: 12 Etudes
!!!OPS: 8
!!!ONM: 12
!!!ODT: 1894
!!!AGN: Etude
**kern	**kern	**dynam
*staff2	*staff1	*staff1/2
*Ipiano	*Ipiano	*
*clefF4	*clefG2	*
*k[f#c#g#d#a#e#]	*k[f#c#g#d#a#e#]	*
*d#:	*d#:	*
*M4/4	*M4/4	*
*met(c)	*met(c)	*
16DD# 16D#	16r	.
=1	=1	=1
12DD#L 12D#	2r	.
12A#	.	.
12AA#J	.	.
12F#L	.	.
12d#	.	.
12AA#J	.	.
12DD#L 12D#	8.r	.
12A#	.	.
12AA#J	.	.
.	16a# 16aa#	.
12F#L	8.A#L 8.a#	.
12d#	.	.
12AA#J	.	.
.	16e#Jk 16ee#	.
=2	=2	=2
*	*^	*
12DD#L 12F#	2a#	2e# 2ee#	.
12A#	.	.	.
12AA#J	.	.	.
12F#L	.	.	.
12a#	.	.	.
12AA#J	.	.	.
12DD#L 12F#	4a#	12d#L 12dd#	.
12A#	.	12c##X 12cc##X	.
12AA#J	.	12d#J 12dd#	.
12F#L	8a#L	16e#LL 16ee#	.
.	.	16f# 16ff#	.
12d#	.	.	.
.	16dd#Jk	16a#J 16aa#	.
12D#J	.	.	.
.	16rc	32r	.
.	.	32cc#XJkk 32ccc#X	.
=3	=3	=3	=3
12DD#L 12F#	2ff#	4cc# 4ccc#	.
12B	.	.	.
12BBJ	.	.	.
12F#L	.	4b 4bb	.
12f#	.	.	.
12BBJ	.	.	.
12DD#L 12F#	4rf	8.raa	.
12B	.	.	.
12BBJ	.	.	.
.	.	16b 16bb	.
12F#L	4rD	8.BL 8.b	.
12d#	.	.	.
12BBJ	.	.	.
.	.	16f#Jk 16ff#	.
=4	=4	=4	=4
12DD#L 12G#	2b	2f# 2ff#	.
12B	.	.	.
12BBJ	.	.	.
12G#L	.	.	.
12b	.	.	.
12BBJ	.	.	.
12DD#L 12G#	4b	12enL 12een	.
12B	.	12d# 12dd#	.
12BBJ	.	12eJ 12ee	.
12G#L	8bL	16f#LL 16ff#	.
.	.	16g# 16gg#	.
12en	.	.	.
.	16eeJk	16bJ 16bb	.
12BBJ	.	.	.
.	16rc	32r	.
.	.	32dd#Jkk 32ddd#	.
=5	=5	=5	=5
12DD#L 12G#	2gg#	4dd# 4ddd#	.
12B	.	.	.
12E#XJ	.	.	.
12G#L	.	4cc##X 4ccc##X	.
12g#	.	.	.
12BBJ	.	.	.
12DD#L 12G#	4rc	8.raa	.
12B	.	.	.
12D#J	.	.	.
.	.	16dd# 16ddd#	.
12G#L	4rc	8.d#L 8.dd#	.
12g#	.	.	.
12BBJ	.	.	.
.	.	16a#Jk 16aa#	.
=6	=6	=6	=6
12DD#L 12G#	2dd#	2a# 2aa#	.
12d#	.	.	.
12D#J	.	.	.
12BL	.	.	.
12dd#	.	.	.
12BBJ	.	.	.
12DD#L 12G#	4dd#	12g#L 12gg#	.
12d#	.	12f##X 12ff##X	.
12D#J	.	12g#J 12gg#	.
12BL	8dd#L	16a#LL 16aa#	.
.	.	16b 16bb	.
12g#	.	.	.
.	16gg#Jk	16dd#J 16ddd#	.
12BBJ	.	.	.
.	16rc	32r	.
.	.	32ff#XJkk 32fff#X	.
=7	=7	=7	=7
12DD#L 12D#	4bb	4ff# 4fff#	.
12B	.	.	.
12C##XJ	.	.	.
12G#L	2bb	2ee# 2eee#	.
12e#	.	.	.
12BBJ	.	.	.
12DD#L 12D#	.	.	.
12B	.	.	.
12C##J	.	.	.
12G#L	4gg# 4bb	4een 4eeen	.
12en	.	.	.
12DD#J 12D#	.	.	.
=8	=8	=8	=8
*^	*	*	*
4GGG# 4GG#	12GG#L	4gg# 4bb	4dd# 4ddd#	.
.	12B	.	.	.
.	12D#J	.	.	.
12rEE	12G#L	4dd# 4gg#	8cc#L 8ccc#	.
12rEE	12d#	.	.	.
.	.	.	8bJ 8bb	.
12GGG# 12GG#	12GG#J	.	.	.
4EEE# 4EE#	12EE#L	4dd#	8a#L 8aa#	.
.	12B	.	.	.
.	.	.	[8g#J [8gg#	.
.	12D#J	.	.	.
12rEE	12G#L	6dd#	6g#] 6gg#]	.
12rEE	12d#	.	.	.
12EEE# 12EE#	12EE#J	12b 12dd#	12f# 12ff#	.
=9	=9	=9	=9	=9
4AAA# 4AA#	12AA#L	2a# 2cc##X	4f# 4ff#	.
.	12A#	.	.	.
.	12AA#J	.	.	.
12rEE	12G#L	.	4e# 4ee#	.
12rEE	12c##X	.	.	.
12EE# 12E#	12E#J	.	.	.
4AAA# 4AA#	12AA#L	4ryy	8.raa	.
.	12A#	.	.	.
.	12AA#J	.	.	.
.	.	.	16a# 16aa#	.
12rEE	12G#L	4ryy	8A#L 8a#	.
12rEE	12c##	.	.	.
.	.	.	16r	.
12AAA# 12AA#	12AA#J	.	.	.
.	.	.	16e#Jk 16ee#	.
=10	=10	=10	=10	=10
12DDD# 12DD#	12DD#L	2a#	2e# 2ee#	.
12rEE	12A#	.	.	.
12rEE	12AA#J	.	.	.
4rEE	12F#L	.	.	.
.	12a#	.	.	.
.	12AA#J	.	.	.
4rEE	12DD#L 12F#	4a#	12d#L 12dd#	.
.	12A#	.	12c##X 12cc##X	.
.	12AA#J	.	12d#J 12dd#	.
12rEE	12F#L	8a#L	16e#LL 16ee#	.
.	.	.	16f# 16ff#	.
12rEE	12d#	.	.	.
.	.	16dd#Jk	16a#J 16aa#	.
12DD# 12D#	12D#J	.	.	.
.	.	16rc	32r	.
.	.	.	32cc#XJkk 32ccc#X	.
=11	=11	=11	=11	=11
12DDD# 12DD#	12DD#L	2ff#	4cc# 4ccc#	.
12rEE	12B	.	.	.
12rEE	12BBJ	.	.	.
4rEE	12F#L	.	4b 4bb	.
.	12B 12f#	.	.	.
.	12BBJ	.	.	.
4rEE	12DD#L 12F#	4ryy	8.raa	.
.	12B	.	.	.
.	12BBJ	.	.	.
.	.	.	16b 16bb	.
12rEE	12F#L	4ryy	8.BL 8.b	.
12rEE	12d#	.	.	.
12BB 12B	12BJ	.	.	.
.	.	.	16f#Jk 16ff#	.
=12	=12	=12	=12	=12
12DDD# 12DD#	12DD#L	2b	2f# 2ff#	.
12rEE	12B	.	.	.
12rEE	12BBJ	.	.	.
4rEE	12G#L	.	.	.
.	12b	.	.	.
.	12BBJ	.	.	.
4rEE	12DD#L 12G#	4b	12enL 12een	.
.	12B	.	12d# 12dd#	.
.	12BBJ	.	12eJ 12ee	.
12rEE	12G#L	8bL	16f#LL 16ff#	.
.	.	.	16g# 16gg#	.
12rEE	12en	.	.	.
.	.	16eeJk	16bJ 16bb	.
12BB 12B	12BJ	.	.	.
.	.	16rc	32r	.
.	.	.	32dd#Jkk 32ddd#	.
=13	=13	=13	=13	=13
12DDD# 12DD#	12DD#L	4gg#	4dd# 4ddd#	.
12rEE	12B	.	.	.
12rEE	12E#XJ	.	.	.
4rEE	12G#L	4gg#	4cc##X 4ccc##X	.
.	12c##X 12g#	.	.	.
.	12BBJ	.	.	.
4rEE	12DD#L 12G#	4rc	8.raa	.
.	12B	.	.	.
.	12D#J	.	.	.
.	.	.	16dd# 16ddd#	.
12rEE	12G#L	4rc	8.d#L 8.dd#	.
12rEE	12B 12g#	.	.	.
12BB 12B	12BJ	.	.	.
.	.	.	16a#Jk 16aa#	.
=14	=14	=14	=14	=14
12DDD# 12DD#	12DD#L	2dd#	2a# 2aa#	.
12rEE	12d#	.	.	.
12rEE	12D#J	.	.	.
4rEE	12BL	.	.	.
.	12dd#	.	.	.
.	12BBJ	.	.	.
4rEE	12DD#L 12G#	4dd#	12g#L 12gg#	.
.	12d#	.	12f##X 12ff##X	.
.	12D#J	.	12g#J 12gg#	.
12rEE	12BL	8dd#L	16a#LL 16aa#	.
.	.	.	16b 16bb	.
12rEE	12g#	.	.	.
.	.	16gg#Jk	16dd#J 16ddd#	.
12GG# 12G#	12G#J	.	.	.
.	.	16rc	32r	.
.	.	.	32ff#XJkk 32fff#X	.
=15	=15	=15	=15	=15
12DD# 12D#	12D#L	4bb	4ff# 4fff#	.
12rEE	12B	.	.	.
12rEE	12C##XJ	.	.	.
12rEE	12G#L	2bb	2ee# 2eee#	.
12rEE	12B 12e#	.	.	.
12GG# 12G#	12G#J	.	.	.
12DD# 12D#	12D#L	.	.	.
12rEE	12B	.	.	.
12rEE	12C##J	.	.	.
12rEE	12G#L	4bb	4een 4eeen	.
12rEE	12B 12en	.	.	.
12DD# 12D#	12D#J	.	.	.
=16	=16	=16	=16	=16
12GGG# 12GG#	12GG#L	4gg# 4bb	4dd# 4ddd#	.
12rEE	12B	.	.	.
12rEE	12D#J	.	.	.
12rEE	12G#L	4dd# 4gg#	8cc#L 8ccc#	.
12rEE	12d#	.	.	.
.	.	.	8bJ 8bb	.
12GGG# 12GG#	12GG#J	.	.	.
12CC# 12C#	12C#L	4cc# 4ee#	8a#L 8aa#	.
12rEE	12c#	.	.	.
.	.	.	[8g#J [8gg#	.
12rEE	12C#J	.	.	.
12rEE	12BL	4cc# 4ee#	6g#] 6gg#]	.
12rEE	12e#	.	.	.
12CC# 12C#	12C#J	.	12a# 12aa#	.
=17	=17	=17	=17	=17
12FFF# 12FF#	12FF#L	2cc#	4g# 4gg#	.
12rEE	12c#	.	.	.
12rEE	12C#J	.	.	.
4rEE	12A#L	.	4f# 4ff#	.
.	12f#	.	.	.
.	12C#J	.	.	.
4rEE	12FF#L 12F#	4ryy	12raa	.
.	12An	.	12raa	.
.	12C#J	.	12cc# 12ccc#	.
4rEE	12F#L	4ryy	12g#L 12gg#	.
.	12c#	.	12f# 12ff#	.
.	12C#J	.	12g#J 12gg#	.
*	*	*v	*v	*
=18	=18	=18	=18
4rD	12FF#L 12F#	12c#L 12cc#	.
.	12c#	12d# 12dd#	.
.	12C#J	12enJ 12een	.
4rEE	12AnL	[4g# [4gg#	.
.	12en	.	.
.	12C#J	.	.
4rEE	12FF#L 12F#	12g#L] 12gg#]	.
.	12c#	12f# 12ff#	.
.	12C#J	12g#J 12gg#	.
12rEE	12F#L	16anLL 16aan	.
.	.	16cc# 16ccc#	.
12rEE	12A 12e	.	.
.	.	16eenJ 16eeen	.
12FF# 12F#	12F#J	.	.
.	.	32r	.
.	.	32gg#Jkk 32ggg#	.
=19	=19	=19	=19
4CC# 4C#	12C#L	4gg# 4ggg#	.
.	12An	.	.
.	12C#J	.	.
4rEE	12F#L	[4ff# [4fff#	.
.	12A 12en	.	.
.	12C#J	.	.
4rEE	12CC#L	12ff#L] 12fff#]	.
.	12A	12een 12eeen	.
.	12C#J	12cc#J 12ccc#	.
12rEE	12F#L	12anL 12aan	.
12rEE	12A 12e	12g# 12gg#	.
12FF# 12F#	12F#J	12aJ 12aa	.
=20	=20	=20	=20
4CC# 4C#	12C#L	12f#L 12ff#	.
.	12An	12g# 12gg#	.
.	12C#J	12anJ 12aan	.
12rEE	12F#L	2ff# 2fff#	.
12rEE	12A 12en	.	.
12FF# 12F#	12F#J	.	.
4CCn 4C	12CnL	.	.
.	12A	.	.
.	12CJ	.	.
12rEE	12F#L	6een 6eeen	.
12rEE	12A 12e	.	.
12FF# 12F#	12F#J	12ff# 12fff#	.
=21	=21	=21	=21
4BBB 4BB	12BBL	4een 4eeen	.
.	12An	.	.
.	12BBJ	.	.
4rEE	12F#L	6dd# 6ddd#	.
.	12A 12d#	.	.
.	12BBJ	12cc# 12ccc#	.
4BBB	12BBBL	12bL 12bb	.
.	12A	12an 12aan	.
.	12BBJ	12g#J 12gg#	.
4rEE	12F#L	12f#L 12ff#	.
.	12A 12cn	12en 12een	.
.	12BBJ	12f#J 12ff#	.
=22	=22	=22	=22
4EEn 4E	12EnL	12BL 12b	.
.	12Gn	12c# 12cc#	.
.	12BBJ	12dnJ 12ddn	.
4rEE	12EL	[4f# [4ff#	.
.	12G 12dn	.	.
.	12BBJ	.	.
4rEE	12EEL 12E	12f#L] 12ff#]	.
.	12G	12en 12een	.
.	12BBJ	12f#J 12ff#	.
12rEE	12EL	16gnLL 16ggn	.
.	.	16b 16bb	.
12rEE	12G 12d	.	.
.	.	16ddnJ 16dddn	.
12EE 12E	12EJ	.	.
.	.	32r	.
.	.	32ff#Jkk 32fff#	.
=23	=23	=23	=23
4BBB 4BB	12BBL	4ff# 4fff#	.
.	12Gn	.	.
.	12BBJ	.	.
4rEE	12EnL	[4een [4eeen	.
.	12G 12dn	.	.
.	12BBJ	.	.
4rEE	12BBBL	12eeL] 12eee]	.
.	12G	12ddn 12dddn	.
.	12BBJ	12bJ 12bb	.
12rEE	12EL	12gnL 12ggn	.
12rEE	12G 12d	12f# 12ff#	.
12EEn 12E	12EJ	12gJ 12gg	.
=24	=24	=24	=24
4BBB 4BB	12BBL	12enL 12een	.
.	12Gn	12f# 12ff#	.
.	12BBJ	12gnJ 12ggn	.
12rEE	12EnL	2een 2eeen	.
12rEE	12G 12dn	.	.
12EEn 12E	12EJ	.	.
4BBB-X 4BB-	12BB-XL	.	.
.	12G	.	.
.	12BB-J	.	.
12rEE	12EL	6ddn 6dddn	.
12rEE	12G 12d	.	.
12EE 12E	12EJ	12ee 12eee	.
*v	*v	*	*
=25	=25	=25
12AAAnL 12AAn	4ddn 4dddn	.
12Gn	.	.
12AAJ	.	.
12EnL	6cc# 6ccc#	.
12G 12c#	.	.
12EEnJ 12E	12b 12bb	.
12AAAL 12AA	12anL 12aan	.
12G	12gn 12ggn	.
12AAJ	12f#J 12ff#	.
12EL	12enL 12een	.
12G 12B-X	12dn 12ddn	.
12AAJ	12eJ 12ee	.
=26	=26	=26
*^	*	*
12DDn 12D	12DnL	12AnL 12an	.
12rEE	12An	12c# 12cc#	.
12rEE	12AAnJ	12dnJ 12ddn	.
12rEE	12F#L	[4an [4dd [4aan	.
12rEE	12dn	.	.
12AAAn 12AA	12AAJ	.	.
4DDDn 4DD	12DDL	8aL] 8dd] 8aa]	.
.	12A	.	.
.	.	[8aJ [8cc# [8ff# [8aa	.
.	12AAJ	.	.
12rEE	12F#L	12aL] 12cc#] 12ff#] 12aa]	.
12rEE	12c#	12r	.
12DDD 12DD	12DDJ	12aJ 12cc# 12ff# 12aa	.
=27	=27	=27	=27
4GGG# 4GG#	12GG#L	4an 4b#X 4ff# 4aan	.
.	12F#	.	.
.	12GG#J	.	.
12rEE	12D#L	4g# 4b# 4ff# 4gg#	.
12rEE	12B#X	.	.
12DD# 12D#	12D#J	.	.
4GGG# 4GG#	12GG#L	12r	.
.	12F#	12r	.
.	12GG#J	12g# 12gg#	.
4rEE	12D#L	12d#L 12dd#	.
.	12An	12c# 12cc#	.
.	12GG#J	12d#J 12dd#	.
=28	=28	=28	=28
4CC# 4C#	12C#L	12G#L 12g#	.
.	12G#	12B#X 12b#X	.
.	12GG#J	12c#J 12cc#	.
12rEE	12EnL	[4g# [4cc# [4gg#	.
12rEE	12c#	.	.
12GGG# 12GG#	12GG#J	.	.
4CCC# 4CC#	12CC#L	8g#L] 8cc#] 8gg#]	.
.	12E	.	.
.	.	[8gnJ [8bn [8een [8ggn	.
.	12GGnJ	.	.
12rEE	12EL	6g] 6b] 6ee] 6gg]	.
12rEE	12B	.	.
12CCC# 12CC#	12CC#J	12g 12b 12ee 12gg	.
=29	=29	=29	=29
4FFF# 4FF#	12FF#L	4gn 4a# 4een 4ggn	.
.	12En	.	.
.	12FF#J	.	.
12rEE	12C#L	4f# 4a# 4ee 4ff#	.
12rEE	12A#	.	.
12CC# 12C#	12C#J	.	.
4FFF# 4FF#	12FF#L	12r	.
.	12E	12r	.
.	12FF#J	12f# 12ff#	.
12rEE	12C#L	12c#L 12cc#	.
12rEE	12F#	12B 12b	.
12FFF# 12FF#	12FF#J	12c#J 12cc#	.
=30	=30	=30	=30
4BBBB 4BBB	12BBBL	12F#L 12f#	.
.	12F#	12A# 12a#	.
.	12FF#J	12BJ 12b	.
12rEE	12D#L	2f# 2b 2ff#	.
12rEE	12B	.	.
12FF# 12F#	12F#J	.	.
4BBB 4BB	12BBL	.	.
.	12F#	.	.
.	12FF#J	.	.
12rEE	12D#L	6e#X 6g##X 6ee#X	.
12rEE	12G##X	.	.
12FF# 12F#	12F#J	12d# 12g## 12dd#	.
=31	=31	=31	=31
4AAA# 4AA#	12AA#L	12A#L 12d# 12a#	.
.	12A#	12c##X 12cc##X	.
.	12AA#J	12d#J 12dd#	.
12rEE	12F#L	4a# 4dd# 4aa#	.
12rEE	12d#	.	.
12FF# 12F#	12F#J	.	.
4AAA# 4AA#	12AA#L	12A#L 12d# 12a#	.
.	12A#	12c## 12cc##	.
.	12AA#J	12d#J 12dd#	.
12rEE	12F#L	4b 4dd# 4bb	.
12rEE	12d#	.	.
12FF# 12F#	12F#J	.	.
=32	=32	=32	=32
*	*	*^	*
4AAA# 4AA#	12AA#L	4ryy	12BL 12b	.
.	12B	.	12d# 12dd#	.
.	12E#J	.	12e#J 12ee#	.
4rEE	12G#L	4ryy	6b 6dd# 6bb	.
.	12d#	.	.	.
*clefG2	*	*	*	*
.	12BJ 12d# 12b	.	12a# 12dd# 12aa#	.
4rc	12BL 12d# 12b	12a#L 12dd#	6a# 6aa#	.
.	12B 12d# 12b	12a# 12dd#	.	.
.	12BJ 12d# 12b	12dd#J	12g# 12gg#	.
12rc	12BL 12d# 12b	12g#L 12dd#	4g# 4gg#	.
12rc	12B 12d# 12b	12g# 12dd#	.	.
*clefF4	*	*	*	*
12EE# 12E#	12E#J	12g#J 12dd#	.	.
*	*	*v	*v	*
=33	=33	=33	=33
4AAA# 4AA#	12AA#L	12A#L 12a#	.
.	12A#	12c# 12cc#	.
.	12E#J	12c##XJ 12cc##X	.
4rEE	12G#L	4a# 4aa#	.
.	12c##X	.	.
.	12G#J 12c## 12a#	.	.
4rEE	12G#L 12c## 12a#	8.r	.
.	12G# 12c##	.	.
.	12G#J 12c##	.	.
.	.	16a# 16aa#	.
12rEE	12G#L 12c##	8.A#L 8.a#	.
12rEE	12G# 12c##	.	.
12AAA# 12AA#	12AA#J	.	.
.	.	16e#Jk 16ee#	.
=34	=34	=34	=34
*	*	*^	*
4DDD# 4DD#	12DD#L	12rc	2e# 2ee#	.
.	12AA# 12F# 12A#	12e#L 12a#	.	.
.	12AA#J 12F# 12A#	12e#J 12a#	.	.
4rEE	12AA#L 12F# 12A#	12e#L 12a#	.	.
.	12AA# 12F# 12A#	12e# 12a#	.	.
.	12AA#J 12F# 12A#	12e#J 12a#	.	.
4rEE	12F#L 12A# 12f#	4ryy	12d#L 12a# 12dd#	.
.	12AA# 12F# 12A#	.	12c##X 12a# 12cc##X	.
.	12AA#J 12F# 12A#	.	12d#J 12a# 12dd#	.
12rEE	12D#L 12A# 12d#	8a#L	16e#LL 16ee#	.
.	.	.	16f# 16ff#	.
12rEE	12d# 12f#	.	.	.
.	.	16dd#Jk	16a#J 16aa#	.
12DD# 12D#	12D#J	.	.	.
.	.	16rc	32r	.
.	.	.	32cc#XJkk 32ccc#X	.
=35	=35	=35	=35	=35
4DDD# 4DD#	12DD#L	12rc	4cc# 4ccc#	.
.	12F# 12B 12f#	12cc#L 12ff#	.	.
.	12F#J 12B 12f#	12cc#J 12ff#	.	.
4rEE	12F#L 12B 12f#	12bL 12ff#	4b 4bb	.
.	12BB 12F# 12B	12b 12ff#	.	.
.	12BBJ 12F# 12B	12bJ 12ff#	.	.
4rEE	12BBL 12F# 12B	4b 4ff#	8.raa	.
.	12BB 12F# 12B	.	.	.
.	12BBJ 12F# 12B	.	.	.
.	.	.	16b 16bb	.
12rEE	12F#L 12d#	4ryy	8.BL 8.b	.
12rEE	12F# 12f#	.	.	.
12BB 12B	12BJ	.	.	.
.	.	.	16f#Jk 16ff#	.
=36	=36	=36	=36	=36
4DDD# 4DD#	12DD#L	12rc	2f# 2ff#	.
.	12BB 12G# 12B	12f#L 12b	.	.
.	12BBJ 12G# 12B	12f#J 12b	.	.
4rEE	12BBL 12G# 12B	12f#L 12b	.	.
.	12BB 12G# 12B	12f# 12b	.	.
.	12BBJ 12G# 12B	12f#J 12b	.	.
4rEE	12G#L 12B 12g#	4ryy	12enL 12b 12een	.
.	12BB 12G# 12B	.	12d# 12b 12dd#	.
.	12BBJ 12G# 12B	.	12eJ 12b 12ee	.
12rEE	12EnL 12B 12en	8bL	16f#LL 16ff#	.
.	.	.	16g# 16gg#	.
12rEE	12G# 12e 12g#	.	.	.
.	.	16eeJk	16bJ 16bb	.
12BB 12B	12BJ	.	.	.
.	.	16rc	32r	.
.	.	.	32dd#Jkk 32ddd#	.
=37	=37	=37	=37	=37
4DDD# 4DD#	12DD#L	12rc	4dd# 4ddd#	.
.	12BB 12E#X 12G# 12B	12dd#L 12gg#	.	.
.	12BBJ 12E# 12G# 12B	12dd#J 12gg#	.	.
4rEE	12E#L 12G# 12B 12e#	12cc##L 12gg#	4cc##X 4ccc##X	.
.	12E# 12G# 12B 12e#	12cc## 12gg#	.	.
.	12E#J 12G# 12B 12e#	12cc##J 12gg#	.	.
4rEE	12E#L 12G# 12B 12e#	12cc##L 12gg#	12raa	.
.	12E# 12G# 12B 12e#	12cc## 12gg#	12raa	.
.	12D#J 12G# 12B 12d#	12dd#J 12gg#	12dd# 12ddd#	.
12rEE	12G#L 12B 12g#	12d#L 12b	6d# 6dd#	.
12rEE	12G# 12B 12g#	12d# 12b	.	.
12D# 12d#	12BJ	12dd#J	12a# 12aa#	.
=38	=38	=38	=38	=38
4DD# 4D#	12D#L	12rc	2a# 2aa#	.
.	12D# 12B 12d#	12a#L 12dd#	.	.
.	12D#J 12B 12d#	12a#J 12dd#	.	.
4rEE	12D#L 12B 12d#	12a#L 12dd#	.	.
.	12D# 12B 12d#	12a# 12dd#	.	.
.	12D#J 12B 12d#	12a#J 12dd#	.	.
4rEE	12BL 12d# 12b	4ryy	12g#L 12dd# 12gg#	.
.	12D# 12B 12d#	.	12f##X 12dd# 12ff##X	.
.	12D#J 12B 12d#	.	12g#J 12dd# 12gg#	.
12rEE	12G#L 12d# 12g#	8dd#L	16a#LL 16aa#	.
.	.	.	16b 16bb	.
12rEE	12B 12g# 12b	.	.	.
.	.	16gg#Jk	16dd#J 16ddd#	.
12GG# 12G#	12G#J	.	.	.
.	.	16rc	32r	.
.	.	.	32ff#XJkk 32fff#X	.
=39	=39	=39	=39	=39
4DD# 4D#	12D#L	12rc	4ff# 4fff#	.
.	12C##X 12G# 12B	12ff#L 12bb	.	.
.	12C##J 12G# 12B	12ff#J 12bb	.	.
12rEE	12G#L 12B 12e#	12ee#L 12bb	2ee# 2eee#	.
12rEE	12G# 12B 12e#	12ee# 12bb	.	.
12GG# 12G#	12G#J	12ee#J 12bb	.	.
4DD# 4D#	12D#L	12ee#L 12bb	.	.
.	12C## 12G# 12B	12ee# 12bb	.	.
.	12C##J 12G# 12B	12ee#J 12bb	.	.
12rEE	12G#L 12B 12en	12eeL 12bb	4een 4eeen	.
12rEE	12G# 12B 12e	12ee 12bb	.	.
12DD# 12D#	12D#J	12eeJ 12bb	.	.
=40	=40	=40	=40	=40
4GGG# 4GG#	12GG#L	12dd#L 12gg# 12bb	4dd# 4ddd#	.
.	12D# 12G# 12d#	12dd# 12gg# 12bb	.	.
.	12D#J 12G# 12d#	12dd#J 12gg# 12bb	.	.
4rEE	12D#L 12G# 12d#	12dd#L 12gg#	8cc#L 8ccc#	.
.	12D# 12G# 12d#	12dd# 12gg#	.	.
.	.	.	8bJ 8bb	.
.	12D#J 12G# 12d#	12dd#J 12gg#	.	.
*clefG2	*	*	*	*
4rc	12BL 12d# 12b	12dd#L	6a# 6aa#	.
.	12B 12d# 12b	12a# 12dd#	.	.
.	12BJ 12d# 12b	12g#J 12dd#	[12g# [12gg#	.
*clefF4	*	*	*	*
12rEE	12D#L 12B 12d#	12g#L 12dd#	6g#] 6gg#]	.
12rEE	12D# 12B 12d#	12g# 12dd#	.	.
12GGG# 12GG#	12GG#J	12bJ 12dd#	12f# 12ff#	.
=41	=41	=41	=41	=41
4DDD# 4DD#	12DD#L	12r	2f# 2ff#	.
.	12BB 12F# 12B	12f#L 12b 12dd#	.	.
.	12BBJ 12F# 12B	12f#J 12b 12dd#	.	.
4r	12BBL 12F# 12B	12f#L 12b 12dd#	.	.
.	12BB 12F# 12B	12f# 12b 12dd#	.	.
.	12BBJ 12F# 12B	12f#J 12b 12dd#	.	.
4r	12BBL 12E 12B	12e#L 12b 12dd#	4e 4ee	.
.	12GG# 12G#	12e# 12b 12dd#	.	.
.	12GG#J 12G#	12e#J 12b 12dd#	.	.
12r	12GG#L 12G#	12e#L 12b 12dd#	12r	.
12r	12GG# 12G#	12e# 12b 12dd#	12r	.
12GGG# 12GG#	12GG#J	12dd#J 12ff#	12a 12aa	.
=42	=42	=42	=42	=42
4DDD# 4DD#	12DD#L	12rc	2a# 2aa#	.
.	12BB 12F# 12B	12a#L 12dd# 12ff#	.	.
.	12BBJ 12F# 12B	12a#J 12dd# 12ff#	.	.
4rEE	12BBL 12F# 12B	12a#L 12dd# 12ff#	.	.
.	12BB 12F# 12B	12a# 12dd# 12ff#	.	.
.	12BBJ 12F# 12B	12a#J 12dd# 12ff#	.	.
4rEE	12BBL 12E# 12B	12g#L 12dd# 12ee#	4g# 4gg#	.
.	12GG# 12G#	12g# 12dd# 12ee#	.	.
.	12GG#J 12G#	12g#J 12dd# 12ee#	.	.
12rEE	12GG#L 12G#	12g#L 12dd# 12ee#	12raa	.
12rEE	12GG# 12G#	12g# 12dd# 12ee#	12raa	.
12GGG# 12GG#	12GG#J	12dd#J 12gg#	12cc# 12ccc#	.
=43	=43	=43	=43	=43
4DDD# 4DD#	12DD#L	12rc	2cc# 2ccc#	.
.	12D# 12G# 12d#	12cc#L 12dd# 12gg#	.	.
.	12D#J 12G# 12d#	12cc#J 12dd# 12gg#	.	.
4rEE	12D#L 12G# 12d#	12cc#L 12dd# 12gg#	.	.
.	12D# 12G# 12d#	12cc# 12dd# 12gg#	.	.
.	12D#J 12G# 12d#	12cc#J 12dd# 12gg#	.	.
4rEE	12G#L 12d# 12g#	12bL 12dd# 12gg#	4b 4bb	.
.	12BB 12B	12b 12dd# 12gg#	.	.
.	12BBJ 12B	12bJ 12dd# 12gg#	.	.
12rEE	12BBL 12B	12bL 12dd# 12gg#	12raa	.
12rEE	12BB 12B	12b 12dd# 12gg#	12raa	.
12BB 12B	12BJ	12bbJ	12ff# 12fff#	.
*v	*v	*	*	*
=44	=44	=44	=44
8CCC##XL 8CC##X	12ff#L 12bb	4ff# 4fff#	.
.	12ff# 12bb	.	.
8BBJ 8B	.	.	.
.	12ff#J 12bb	.	.
8E#L 8B 8e#	12ee#L 12bb	2ee# 2eee#	.
.	12ee# 12bb	.	.
8BBJ 8B	.	.	.
.	12ee#J 12bb	.	.
8DDD#L 8DD#	12ee#L 12bb	.	.
.	12ee# 12bb	.	.
8BBJ 8B	.	.	.
.	12ee#J 12bb	.	.
8EnL 8B 8en	12eeL 12bb	[4een [4eeen	.
.	12ee 12bb	.	.
8BBJ 8B	.	.	.
.	12eeJ 12bb	.	.
=45	=45	=45	=45
8EEEnL 8EEn	12eeL 12bb	4ee] 4eee]	.
.	12een 12bb	.	.
8BBJ 8B	.	.	.
.	12eeJ 12bb	.	.
8D#L 8G# 8B 8d#	12dd#L 12gg# 12bb	2dd# 2ddd#	.
.	12dd# 12gg# 12bb	.	.
8BBJ 8B	.	.	.
.	12dd#J 12gg# 12bb	.	.
8EEE#XL 8EE#X	12dd#L 12gg# 12bb	.	.
.	12dd# 12gg# 12bb	.	.
8BBJ 8B	.	.	.
.	12dd#J 12gg# 12bb	.	.
4C##X 4G# 4B 4c##X	12cc##L 12gg# 12bb	[4cc##X [4ccc##X	.
.	12cc## 12gg# 12bb	.	.
.	12cc##J 12gg# 12bb	.	.
=46	=46	=46	=46
8FFF#L 8FF#	12cc##L 12gg# 12bb	4cc##] 4ccc##]	.
.	12cc##X 12gg# 12bb	.	.
8C##XJ 8G# 8B 8c##X	.	.	.
.	12cc##J 12gg# 12bb	.	.
8D#L 8F# 8B 8d#	12dd#L 12bb	2dd# 2ddd#	.
.	12dd# 12bb	.	.
8DD#J 8D#	.	.	.
.	12dd#J 12bb	.	.
8FFF##XL 8FF##X	12dd#L 12bb	.	.
.	12dd# 12bb	.	.
8D#J 8F#X 8B 8d#	.	.	.
.	12dd#J 12bb	.	.
8EnL 8A# 8c#X 8en	12cc#L 12aa#	[4cc#X [4ccc#X	.
.	12cc# 12aa#	.	.
8EEnJ 8E	.	.	.
.	12cc#J 12aa#	.	.
=47	=47	=47	=47
8GGG#L 8GG#	12cc#L 12aa#	4cc#] 4ccc#]	.
.	12cc# 12aa#	.	.
8EnJ 8A# 8c# 8en	.	.	.
.	12cc#J 12een 12aa#	.	.
8EL 8G# 8B 8e	12bL 12ee 12gg#	2b 2bb	.
.	12b 12ee 12gg#	.	.
8EEnJ 8E	.	.	.
.	12bJ 12ee 12gg#	.	.
8GGG##XL 8GG##X	12bL 12ee 12gg#	.	.
.	12b 12ee 12gg#	.	.
8EJ 8G#X 8B 8e	.	.	.
.	12bJ 12ee 12gg#	.	.
8D#L 8F# 8B 8d#	12bL 12dd# 12ff#	[4b [4bb	.
.	12b 12dd# 12ff#	.	.
8GGG##XJ 8GG##X	.	.	.
.	12bJ 12dd# 12ff#	.	.
=48	=48	=48	=48
8AAA#L 8AA#	12bL 12dd# 12ff#	4b] 4bb]	.
.	12b 12dd# 12ff#	.	.
8F#J 8B 8d# 8f#	.	.	.
.	12bJ 12dd# 12ff#	.	.
12F#L 12A# 12d# 12f#	12a#L 12dd# 12ff#	4a# 4aa#	.
12F# 12A# 12d# 12f#	12a# 12dd# 12ff#	.	.
12F#J 12A# 12d# 12f#	12a#J 12dd# 12ff#	.	.
12F#L 12G##X 12B 12d# 12f#	12bL 12dd#	4b 4bb	.
12F# 12G## 12B 12d# 12f#	12b 12dd#	.	.
12F#J 12G## 12B 12d# 12f#	12bJ 12dd#	.	.
12F#L 12G## 12B 12d# 12f#	12bL 12dd#	4f# 4ff#	.
12F# 12G## 12B 12d# 12f#	12b 12dd#	.	.
12F#J 12G## 12B 12d# 12f#	12bJ 12dd#	.	.
=49	=49	=49	=49
12F#L 12G#X 12d# 12f#	12bL 12dd#	2g# 2gg#	.
12F# 12G# 12d# 12f#	12b 12dd#	.	.
12F#J 12G# 12d# 12f#	12bJ 12dd#	.	.
12F#L 12G# 12d# 12f#	12bL 12dd#	.	.
12F# 12G# 12d# 12f#	12b 12dd#	.	.
12F#J 12G# 12d# 12f#	12bJ 12dd#	.	.
12E#L 12G# 12c##X 12e#	12a# 12cc##X	8.raa	.
12G# 12c## 12e#	12ryy	.	.
12G#J 12c## 12e#	12ryy	.	.
.	.	16a# 16aa#	.
12G#L 12c##	4ryy	8.A#L 8.a#	.
12G# 12c##	.	.	.
12AAA#J 12AA#	.	.	.
.	.	16e#Jk 16ee#	.
=50	=50	=50	=50
12DDD#L 12DD#	12rc	2e# 2ee#	.
12AA# 12F# 12A#	12e#L 12a#	.	.
12AA#J 12F# 12A#	12e#J 12a#	.	.
12AA#L 12F# 12A#	12e#L 12a#	.	.
12AA# 12F# 12A#	12e# 12a#	.	.
12AA#J 12F# 12A#	12e#J 12a#	.	.
12F#L 12A# 12f#	4d# 4a#	8d# 8dd#	.
12AA# 12A#	.	.	.
.	.	16raa	.
12AA#J 12A#	.	.	.
.	.	16a#	.
12AA#L 12A#	4rc	8.A#L	.
12AA# 12A#	.	.	.
12AA#J 12A#	.	.	.
.	.	16e#Jk	.
=51	=51	=51	=51
12DDD#L 12DD#	12rc	2e#	.
12AA# 12A#	12F#L	.	.
12AA#J 12A#	12F#J	.	.
12AA#L 12A#	12F#L	.	.
12AA# 12A#	12F#	.	.
12AA#J 12A#	12F#J	.	.
12AA#L 12A#	4F#	8d#	.
12AAA# 12AA#	.	.	.
*	*clefF4	*	*
.	.	16rc	.
12AAA#J 12AA#	.	.	.
.	.	16A#	.
12AAA#L 12AA#	4rEE	8.AA#L	.
12AAA# 12AA#	.	.	.
12AAA#J 12AA#	.	.	.
.	.	16E#Jk	.
=52	=52	=52	=52
12AAA#L	6AA# 6A#	12E#L	.
12DDD# 12DD#	.	12D#	.
12AAA#J	12AA# 12A#	12E#J	.
12AAA#L	6AA# 6A#	12E#L	.
12DDD# 12DD#	.	12D#	.
12DD#J	12D# 12d#	12BJ	.
12DD#L	6D# 6d#	12BL	.
12AAA# 12AA#	.	12A#	.
*	*clefG2	*	*
12AA#J	12A# 12a#	12e#J	.
12AA#L	6A# 6a#	12e#L	.
12DD# 12D#	.	12d#	.
12D#J	12d# 12dd#	12bJ	.
=53	=53	=53	=53
12D#L	6d# 6dd#	12bL	.
12AA# 12A#	.	12a#	.
12A#J	12a# 12aa#	12ee#J	.
12A#L	6a# 6aa#	12ee#L	.
12D# 12d#	.	12dd#	.
*clefG2	*	*	*
12d#J	12d# 12dd#	12bJ	.
12d#L	6dd# 6ddd#	12bbL	.
12A# 12a#	.	12aa#	.
12a#J	12aa# 12aaa#	12eee#J	.
12a#L	6aa# 6aaa#	12eee#L	.
12d# 12dd#	.	12ddd#	.
12a#J 12dd# 12aa#	12ddd# 12dddd#	12aaa#J	.
*	*v	*v	*
=54	=54	=54
4a# 4dd# 4aa#	4ddd# 4aaa# 4dddd#	.
4r	4r	.
*clefF4	*	*
2DDD# 2DD# 2AA#	2F# 2d# 2a#	.
=55	=55	=55
1DD# 1AA# 1D#	1F# 1A# 1d# 1f#	.
==	==	==
*-	*-	*-
!!!system-decoration: {(*)}
!!!ENC: Bryan Jacob Bell
!!!END: November 2021 to April 2022
!!!PED: Konstantin Igumnov and Yakov Milstein
!!!PTL: A.N. Skryabin: Polnoe sobranie sochinenii dlia fortepiano (Muzgiz)
